fs/text_subscript_20_filled.svg

<svg viewBox="0 0 20 20" fill="none" xmlns="http://www.w3.org/2000/svg" height="1em" width="1em">
  <path d="M13.7833 4.98811C14.0528 4.67361 14.0164 4.20014 13.7019 3.93057C13.3874 3.661 12.9139 3.69743 12.6444 4.01192L8.4995 8.84762L4.35461 4.01192C4.08505 3.69743 3.61157 3.661 3.29708 3.93057C2.98258 4.20014 2.94616 4.67361 3.21573 4.98811L7.51169 10.0001L3.21581 15.0119C2.94625 15.3264 2.98267 15.7999 3.29716 16.0695C3.61166 16.339 4.08513 16.3026 4.3547 15.9881L8.4995 11.1525L12.3492 15.6438C12.4812 15.101 12.7306 14.663 13.0136 14.3098C12.6627 14.0701 12.4035 13.706 12.2996 13.281L9.48731 10.0001L13.7833 4.98811ZM15.3347 12.2501C15.0255 12.2501 14.7495 12.5406 14.7495 12.8638C14.7495 13.278 14.4137 13.6138 13.9995 13.6138C13.5853 13.6138 13.2495 13.278 13.2495 12.8638C13.2495 11.8233 14.0902 10.7501 15.3347 10.7501C16.0443 10.7501 16.7402 11.0819 17.1342 11.6878C17.5509 12.3283 17.5508 13.148 17.0941 13.9255C16.8597 14.3244 16.5419 14.6194 16.2481 14.8515C16.1007 14.9679 15.9499 15.0756 15.8124 15.1728L15.7523 15.2152C15.6343 15.2985 15.5275 15.3738 15.4241 15.4517C15.2838 15.5572 15.1674 15.6543 15.0729 15.7501H16.6925C17.1067 15.7501 17.4425 16.0859 17.4425 16.5001C17.4425 16.9143 17.1067 17.2501 16.6925 17.2501H14.0508C14.0422 17.2501 14.0337 17.25 14.0251 17.2497C14.0166 17.25 14.0081 17.2501 13.9995 17.2501C13.5853 17.2501 13.2495 16.9143 13.2495 16.5001C13.2495 15.3424 13.9371 14.6934 14.5221 14.2531C14.6455 14.1603 14.7733 14.0701 14.8903 13.9876L14.9466 13.9479C15.0829 13.8515 15.2051 13.7639 15.3184 13.6743C15.5462 13.4944 15.7013 13.3349 15.8007 13.1657C16.0116 12.8068 15.9407 12.6037 15.8769 12.5057C15.7905 12.3729 15.5962 12.2501 15.3347 12.2501Z" fill="#212121"/>
</svg>

<svg viewBox="0 0 20 20" fill="none" xmlns="http://www.w3.org/2000/svg" height="1em" width="1em">
  <path d="M13.783 4.988a.75.75 0 0 0-1.139-.976L8.5 8.848 4.355 4.012a.75.75 0 1 0-1.14.976L7.513 10l-4.296 5.012a.75.75 0 0 0 1.139.976L8.5 11.153l3.85 4.49c.132-.542.382-.98.665-1.333a1.753 1.753 0 0 1-.714-1.029l-2.813-3.28 4.296-5.013Zm1.552 7.262c-.31 0-.586.29-.586.614a.75.75 0 0 1-1.5 0c0-1.04.841-2.114 2.086-2.114.71 0 1.405.332 1.8.938.416.64.416 1.46-.04 2.237-.235.4-.553.694-.847.926a9.112 9.112 0 0 1-.436.322l-.06.042c-.118.084-.225.159-.328.237a3.17 3.17 0 0 0-.351.298h1.62a.75.75 0 0 1 0 1.5H14.05a.734.734 0 0 1-.052 0 .75.75 0 0 1-.75-.75c0-1.158.688-1.807 1.273-2.247.123-.093.251-.183.368-.265l.057-.04a8.7 8.7 0 0 0 .371-.274c.228-.18.383-.34.483-.508.21-.36.14-.562.076-.66-.087-.133-.28-.256-.542-.256Z" fill="#212121"/>
</svg>
